assets/icons/insta.svg

<?xml version="1.0" encoding="UTF-8"?>
<svg width="15px" height="15px" viewBox="0 0 15 15" version="1.1" xmlns="http://www.w3.org/2000/svg" xmlns:xlink="http://www.w3.org/1999/xlink">
    <!-- Generator: Sketch 64 (93537) - https://sketch.com -->
    <title>insta</title>
    <desc>Created with Sketch.</desc>
    <g id="Page-1" stroke="none" stroke-width="1" fill="none" fill-rule="evenodd">
        <g id="Daxil-ol---Qeydiyyat" transform="translate(-1134.000000, -862.000000)" fill="#FFFFFF" fill-rule="nonzero">
            <g id="BOTTOM" transform="translate(0.000000, 761.000000)">
                <g id="insta" transform="translate(1134.000000, 101.000000)">
                    <path d="M12.7173913,0 L2.2826087,0 C1.02423913,0 0,1.02391304 0,2.2826087 L0,6.19565217 L0,12.7173913 C0,13.976087 1.02423913,15 2.2826087,15 L12.7173913,15 C13.9757609,15 15,13.976087 15,12.7173913 L15,6.19565217 L15,2.2826087 C15,1.02391304 13.9757609,0 12.7173913,0 Z M14.3478261,12.7173913 C14.3478261,13.616413 13.616413,14.3478261 12.7173913,14.3478261 L2.2826087,14.3478261 C1.38358696,14.3478261 0.652173913,13.616413 0.652173913,12.7173913 L0.652173913,6.52173913 L3.375,6.52173913 C3.36880435,6.54815217 3.36652174,6.57521739 3.36097826,6.60163043 C3.3375,6.7098913 3.31793478,6.81880435 3.30326087,6.92902174 C3.2973913,6.97141304 3.29119565,7.01380435 3.28695652,7.05684783 C3.27130435,7.20326087 3.26086957,7.35065217 3.26086957,7.5 C3.26086957,9.8373913 5.1626087,11.7391304 7.5,11.7391304 C9.8373913,11.7391304 11.7391304,9.8373913 11.7391304,7.5 C11.7391304,7.35065217 11.7286957,7.20293478 11.7133696,7.05619565 C11.7091304,7.01380435 11.7029348,6.97206522 11.6970652,6.93 C11.6820652,6.81815217 11.6625,6.7076087 11.6383696,6.59804348 C11.6328261,6.5726087 11.6308696,6.54652174 11.6246739,6.52141304 L14.3478261,6.52141304 L14.3478261,12.7173913 Z M3.91304348,7.5 C3.91304348,7.08717391 3.98217391,6.68543478 4.11978261,6.30391304 C4.62293478,4.87369565 5.98141304,3.91304348 7.5,3.91304348 C7.68978261,3.91304348 7.87728261,3.92804348 8.06054348,3.95706522 C9.25304348,4.14619565 10.2825,4.92880435 10.7765217,6.04271739 C10.8143478,6.12782609 10.848913,6.2148913 10.8802174,6.30391304 C10.8802174,6.30423913 10.8805435,6.30423913 10.8805435,6.30456522 C10.8808696,6.30521739 10.8808696,6.30554348 10.8811957,6.30619565 C11.0178261,6.68543478 11.0869565,7.08717391 11.0869565,7.5 C11.0869565,9.47771739 9.47771739,11.0869565 7.5,11.0869565 C5.52228261,11.0869565 3.91304348,9.47771739 3.91304348,7.5 Z M14.3478261,5.86956522 L11.4120652,5.86956522 C11.4052174,5.85326087 11.3970652,5.83793478 11.3902174,5.82163043 C11.3706522,5.77565217 11.3491304,5.73097826 11.3279348,5.68630435 C11.3031522,5.63347826 11.2780435,5.58097826 11.2509783,5.52978261 C11.2278261,5.48543478 11.2030435,5.44206522 11.178587,5.39902174 C11.1502174,5.34945652 11.1215217,5.30021739 11.0915217,5.25195652 C11.0647826,5.20923913 11.0370652,5.1675 11.0090217,5.12608696 C10.9777174,5.07978261 10.9457609,5.03380435 10.9125,4.98880435 C10.8825,4.94804348 10.8518478,4.90826087 10.8205435,4.86880435 C10.7859783,4.82543478 10.7507609,4.7823913 10.7148913,4.74065217 C10.6822826,4.7025 10.6486957,4.665 10.6147826,4.62815217 C10.5772826,4.58771739 10.5391304,4.54793478 10.5003261,4.50880435 C10.4647826,4.47326087 10.428913,4.43804348 10.3920652,4.40380435 C10.3519565,4.36630435 10.3105435,4.32978261 10.2691304,4.29391304 C10.2313043,4.26130435 10.1934783,4.22902174 10.1543478,4.19771739 C10.1113043,4.16315217 10.0672826,4.1298913 10.0229348,4.09695652 C9.98282609,4.06728261 9.94304348,4.0376087 9.90195652,4.00956522 C9.85630435,3.97826087 9.80967391,3.94826087 9.76271739,3.91891304 C9.72097826,3.8925 9.67923913,3.86576087 9.63652174,3.84097826 C9.58826087,3.81293478 9.53902174,3.78652174 9.48978261,3.76043478 C9.44641304,3.73728261 9.40304348,3.71380435 9.35869565,3.69195652 C9.30782609,3.66717391 9.25630435,3.64467391 9.20445652,3.62184783 C9.15978261,3.60228261 9.11543478,3.58173913 9.0701087,3.56380435 C9.01663043,3.54228261 8.96184783,3.52369565 8.90706522,3.50413043 C8.86206522,3.48815217 8.8173913,3.47152174 8.77173913,3.45684783 C8.71434783,3.43891304 8.65630435,3.42391304 8.59793478,3.40826087 C8.55326087,3.39619565 8.50923913,3.38315217 8.46423913,3.3723913 C8.40228261,3.35804348 8.33934783,3.34695652 8.27673913,3.33521739 C8.23434783,3.3273913 8.19228261,3.3176087 8.14956522,3.31108696 C8.07913043,3.3 8.0073913,3.29315217 7.93597826,3.28565217 C7.89978261,3.28206522 7.86423913,3.27619565 7.82771739,3.27326087 C7.71880435,3.26543478 7.6098913,3.26086957 7.5,3.26086957 C7.3901087,3.26086957 7.28119565,3.26543478 7.17293478,3.27391304 C7.13641304,3.27684783 7.10086957,3.2823913 7.06467391,3.28630435 C6.99326087,3.29380435 6.92184783,3.30065217 6.85141304,3.31173913 C6.80804348,3.31858696 6.76597826,3.32804348 6.72293478,3.33619565 C6.66065217,3.34793478 6.59804348,3.35869565 6.53673913,3.37304348 C6.49076087,3.38380435 6.44608696,3.39717391 6.40076087,3.40956522 C6.34336957,3.4248913 6.28597826,3.4398913 6.22956522,3.4575 C6.18293478,3.47217391 6.1376087,3.48945652 6.09163043,3.50543478 C6.03815217,3.52434783 5.98434783,3.54293478 5.93152174,3.56380435 C5.8848913,3.5823913 5.83923913,3.60326087 5.79326087,3.62347826 C5.74304348,3.64565217 5.6925,3.6675 5.64326087,3.69163043 C5.59695652,3.71413043 5.55195652,3.73858696 5.50663043,3.76271739 C5.45934783,3.78782609 5.4123913,3.81293478 5.36608696,3.84 C5.32108696,3.86641304 5.27706522,3.89445652 5.23304348,3.92217391 C5.18869565,3.95021739 5.14467391,3.97826087 5.10130435,4.00793478 C5.0576087,4.03793478 5.01521739,4.06923913 4.9725,4.10086957 C4.93108696,4.13152174 4.89,4.1625 4.84956522,4.19478261 C4.8075,4.22836957 4.76673913,4.26326087 4.72597826,4.29847826 C4.6875,4.33173913 4.64967391,4.36532609 4.6125,4.3998913 C4.57271739,4.43706522 4.53391304,4.4748913 4.49543478,4.51336957 C4.4598913,4.54923913 4.42467391,4.58543478 4.39043478,4.6226087 C4.35326087,4.66271739 4.31706522,4.70347826 4.28119565,4.74521739 C4.24826087,4.78369565 4.21597826,4.82282609 4.18434783,4.8626087 C4.15043478,4.90532609 4.11717391,4.94836957 4.08456522,4.9923913 C4.05391304,5.03380435 4.02456522,5.07619565 3.99554348,5.11891304 C3.96521739,5.16358696 3.93521739,5.20858696 3.90652174,5.2548913 C3.87847826,5.2998913 3.85173913,5.34586957 3.82532609,5.39184783 C3.79891304,5.43782609 3.77282609,5.48380435 3.74804348,5.53108696 C3.72195652,5.58065217 3.69782609,5.63152174 3.67369565,5.6823913 C3.65217391,5.72804348 3.63032609,5.77369565 3.6101087,5.82032609 C3.60293478,5.83695652 3.59445652,5.8526087 3.5876087,5.86923913 L0.652173913,5.86923913 L0.652173913,2.2826087 C0.652173913,1.38358696 1.38358696,0.652173913 2.2826087,0.652173913 L12.7173913,0.652173913 C13.616413,0.652173913 14.3478261,1.38358696 14.3478261,2.2826087 L14.3478261,5.86956522 Z" id="Shape"></path>
                    <path d="M7.5,5.2173913 C6.24163043,5.2173913 5.2173913,6.24130435 5.2173913,7.5 C5.2173913,8.75869565 6.24163043,9.7826087 7.5,9.7826087 C8.75836957,9.7826087 9.7826087,8.75869565 9.7826087,7.5 C9.7826087,6.24130435 8.75836957,5.2173913 7.5,5.2173913 Z M7.5,9.13043478 C6.60097826,9.13043478 5.86956522,8.39902174 5.86956522,7.5 C5.86956522,6.60097826 6.60097826,5.86956522 7.5,5.86956522 C8.39902174,5.86956522 9.13043478,6.60097826 9.13043478,7.5 C9.13043478,8.39902174 8.39902174,9.13043478 7.5,9.13043478 Z" id="Shape"></path>
                    <path d="M12.7173913,1.95652174 L11.7391304,1.95652174 C11.5588043,1.95652174 11.4130435,2.1026087 11.4130435,2.2826087 L11.4130435,3.26086957 C11.4130435,3.44086957 11.5588043,3.58695652 11.7391304,3.58695652 L12.7173913,3.58695652 C12.8977174,3.58695652 13.0434783,3.44086957 13.0434783,3.26086957 L13.0434783,2.2826087 C13.0434783,2.1026087 12.8977174,1.95652174 12.7173913,1.95652174 Z M12.3913043,2.93478261 L12.0652174,2.93478261 L12.0652174,2.60869565 L12.3913043,2.60869565 L12.3913043,2.93478261 Z" id="Shape"></path>
                </g>
            </g>
        </g>
    </g>
</svg>

<svg width="15" height="15" xmlns="http://www.w3.org/2000/svg"><g fill="#FFF" fill-rule="nonzero"><path d="M12.717 0H2.283A2.285 2.285 0 000 2.283v10.434A2.285 2.285 0 002.283 15h10.434A2.285 2.285 0 0015 12.717V2.283A2.285 2.285 0 0012.717 0zm1.63 12.717c0 .9-.73 1.63-1.63 1.63H2.283c-.9 0-1.63-.73-1.63-1.63V6.522h2.722c-.006.026-.008.053-.014.08a4.09 4.09 0 00-.058.327 4.161 4.161 0 00-.042.571A4.244 4.244 0 007.5 11.74a4.244 4.244 0 004.24-4.24c0-.15-.011-.297-.027-.444-.004-.042-.01-.084-.016-.126a4.037 4.037 0 00-.059-.332c-.005-.025-.007-.051-.013-.077h2.723v6.196zM3.914 7.5a3.587 3.587 0 016.967-1.196l.001.002c.137.38.206.781.206 1.194A3.591 3.591 0 017.5 11.087 3.591 3.591 0 013.913 7.5zm10.435-1.63h-2.936l-.022-.048a3.664 3.664 0 00-.14-.292c-.022-.045-.047-.088-.071-.131a4.71 4.71 0 00-.17-.273 3.994 3.994 0 00-.509-.617 4.111 4.111 0 00-.477-.412c-.04-.03-.08-.06-.121-.087a3.914 3.914 0 00-.14-.091c-.041-.026-.083-.053-.125-.078a4.273 4.273 0 00-.147-.08c-.044-.024-.087-.047-.131-.069-.051-.025-.103-.047-.155-.07-.044-.02-.089-.04-.134-.058-.053-.022-.108-.04-.163-.06l-.135-.047c-.058-.018-.116-.033-.174-.049-.045-.012-.089-.025-.134-.036-.062-.014-.125-.025-.187-.037l-.127-.024c-.07-.011-.143-.018-.214-.025-.036-.004-.072-.01-.108-.013a4.564 4.564 0 00-.655 0c-.037.004-.072.01-.108.013-.072.008-.143.015-.214.026-.043.007-.085.016-.128.024-.062.012-.125.023-.186.037-.046.01-.09.024-.136.037-.058.015-.115.03-.171.047-.047.015-.092.032-.138.048-.054.02-.108.038-.16.059-.047.018-.093.04-.139.06-.05.022-.1.043-.15.068-.046.022-.091.047-.136.07-.048.026-.095.05-.14.078-.046.026-.09.054-.134.082a4.335 4.335 0 00-.383.273 4.157 4.157 0 00-.355.318 4.15 4.15 0 00-.67.879 4.107 4.107 0 00-.077.14c-.026.049-.05.1-.074.15-.022.046-.044.092-.064.138-.007.017-.016.033-.022.05H.652V2.282c0-.9.732-1.63 1.63-1.63h10.435c.9 0 1.63.73 1.63 1.63V5.87z"/><path d="M7.5 5.217A2.285 2.285 0 005.217 7.5 2.285 2.285 0 007.5 9.783 2.285 2.285 0 009.783 7.5 2.285 2.285 0 007.5 5.217zm0 3.913c-.899 0-1.63-.731-1.63-1.63 0-.899.731-1.63 1.63-1.63.899 0 1.63.731 1.63 1.63 0 .899-.731 1.63-1.63 1.63zM12.717 1.957h-.978a.326.326 0 00-.326.326v.978c0 .18.146.326.326.326h.978c.18 0 .326-.146.326-.326v-.978a.326.326 0 00-.326-.326zm-.326.978h-.326v-.326h.326v.326z"/></g></svg>
